Catalina-dark/apps/64/system-reboot.svg

<?xml version="1.0" encoding="UTF-8" standalone="no"?>
<!-- Created with Inkscape (http://www.inkscape.org/) -->

<svg
   xmlns:dc="http://purl.org/dc/elements/1.1/"
   xmlns:cc="http://creativecommons.org/ns#"
   xmlns:rdf="http://www.w3.org/1999/02/22-rdf-syntax-ns#"
   xmlns:svg="http://www.w3.org/2000/svg"
   xmlns="http://www.w3.org/2000/svg"
   xmlns:sodipodi="http://sodipodi.sourceforge.net/DTD/sodipodi-0.dtd"
   xmlns:inkscape="http://www.inkscape.org/namespaces/inkscape"
   width="64"
   height="64"
   viewBox="0 0 16.933333 16.933334"
   version="1.1"
   id="svg8"
   inkscape:version="0.92.4 (5da689c313, 2019-01-14)"
   sodipodi:docname="system-reboot.svg">
  <defs
     id="defs2" />
  <sodipodi:namedview
     id="base"
     pagecolor="#ffffff"
     bordercolor="#666666"
     borderopacity="1.0"
     inkscape:pageopacity="0.0"
     inkscape:pageshadow="2"
     inkscape:zoom="11.2"
     inkscape:cx="22.849739"
     inkscape:cy="29.939098"
     inkscape:document-units="mm"
     inkscape:current-layer="layer1"
     showgrid="false"
     units="px"
     inkscape:window-width="1920"
     inkscape:window-height="1023"
     inkscape:window-x="0"
     inkscape:window-y="29"
     inkscape:window-maximized="1" />
  <metadata
     id="metadata5">
    <rdf:RDF>
      <cc:Work
         rdf:about="">
        <dc:format>image/svg+xml</dc:format>
        <dc:type
           rdf:resource="http://purl.org/dc/dcmitype/StillImage" />
        <dc:title />
      </cc:Work>
    </rdf:RDF>
  </metadata>
  <g
     inkscape:label="Capa 1"
     inkscape:groupmode="layer"
     id="layer1"
     transform="translate(0,-280.06665)">
    <path
       style="opacity:1;fill:#eeeff1;fill-opacity:0.61176473;stroke-width:1.07655489"
       d="M 32.099609 2.2148438 C 15.457209 2.2143902 1.9654595 15.705263 1.9648438 32.347656 C 1.9643741 48.990806 15.456442 62.482875 32.099609 62.482422 C 48.742014 62.481817 62.232891 48.99005 62.232422 32.347656 C 62.231806 15.706018 48.741247 2.2154485 32.099609 2.2148438 z M 32.095703 11.056641 C 43.090959 11.056641 52.185309 19.467741 53.275391 30.183594 L 58.070312 30.183594 L 52.154297 36.767578 L 50.087891 39.070312 L 42.099609 30.183594 L 47.550781 30.183594 C 46.502705 22.55843 40.020673 16.726562 32.095703 16.726562 C 23.434164 16.726562 16.476562 23.684198 16.476562 32.345703 C 16.476563 41.007246 23.434164 47.974609 32.095703 47.974609 A 2.8349291 2.8349291 0 1 1 32.095703 53.642578 C 20.370244 53.642578 10.806641 44.071158 10.806641 32.345703 C 10.806641 20.620286 20.370244 11.056641 32.095703 11.056641 z "
       transform="matrix(0.26458333,0,0,0.26458333,0,280.06665)"
       id="path815" />
    <g
       id="g824"
       transform="translate(0.25985811,-0.31496282)" />
  </g>
</svg>

<svg width="64" height="64" version="1.1" viewBox="0 0 16.933 16.933" xmlns="http://www.w3.org/2000/svg">
<g transform="translate(0 -280.07)">
<path transform="matrix(.26458 0 0 .26458 0 280.07)" d="m32.1 2.2148c-16.642-4.536e-4 -30.134 13.49-30.135 30.133-4.697e-4 16.643 13.492 30.135 30.135 30.135 16.642-6.05e-4 30.133-13.492 30.133-30.135-6.16e-4 -16.642-13.491-30.132-30.133-30.133zm-0.003906 8.8418c10.995 0 20.09 8.4111 21.18 19.127h4.7949l-5.916 6.584-2.0664 2.3027-7.9883-8.8867h5.4512c-1.0481-7.6252-7.5301-13.457-15.455-13.457-8.6615 0-15.619 6.9576-15.619 15.619 1e-6 8.6615 6.9576 15.629 15.619 15.629a2.8349 2.8349 0 1 1 0 5.668c-11.725 0-21.289-9.5714-21.289-21.297 0-11.725 9.5636-21.289 21.289-21.289z" fill="#eeeff1" fill-opacity=".61176" stroke-width="1.0766"/>
</g>
</svg>
